X: 5
T: McGovern's Favourite
R: reel
M: 4/4
L: 1/8
K: Ador
|:A3B GEDE|GA (3Bcd edBd|eaaf gedB|AcBG AGEG|
EAAB GEDE|GA (3Bcd ed (3Bcd|eaaf gedB|AcBG A3:|
|:a2ab agef|gedB GABd|egfa gedB|AcBG AG E2|
a3b agef|gedB GABd|eaaf gedB|gbaf gedB :|


Tune 2430	Setting 15761

